svgs/aniyomi.svg

<svg xmlns="http://www.w3.org/2000/svg" viewBox="0 0 192 192"><path d="M96 16.5c44.002 0 79.5 35.498 79.5 79.5s-35.498 79.5-79.5 79.5S16.5 140.002 16.5 96 51.998 16.5 96 16.5Z" fill="none" stroke="#000" stroke-width="12" stroke-linecap="round" stroke-linejoin="round" stroke-miterlimit="90"/><path d="M96 33.14c34.758 0 62.86 28.102 62.86 62.86 0 34.758-28.102 62.86-62.86 62.86-34.758 0-62.86-28.102-62.86-62.86 0-34.758 28.102-62.86 62.86-62.86Z" fill="none" stroke="#000" stroke-width="12" stroke-linecap="round" stroke-linejoin="round" stroke-miterlimit="90"/><path d="M128.17 100.807c2.588-.74 4.437-3.328 3.697-5.916a4.748 4.748 0 0 0-3.697-3.698L77.881 62.351c-2.588-.739-5.176.74-5.916 3.328 0 .37-.37 1.109-.37 1.849v57.684c0 2.588 1.849 4.807 4.438 5.176.739 0 1.109 0 1.848-.369Z" fill="none" stroke="#000" stroke-width="12" stroke-linecap="round" stroke-linejoin="round" stroke-miterlimit="90"/></svg>

<svg
    xmlns="http://www.w3.org/2000/svg"
    viewBox="0 0 192 192"
    id="vector">
    <path
        id="path"
        d="M 96 16.5 C 140.002 16.5 175.5 51.998 175.5 96 C 175.5 140.002 140.002 175.5 96 175.5 C 51.998 175.5 16.5 140.002 16.5 96 C 16.5 51.998 51.998 16.5 96 16.5 Z"
        fill="none"
        stroke="#000000"
        stroke-width="12"
        stroke-linecap="round"
        stroke-linejoin="round"
        stroke-miterlimit="90"/>
    <path
        id="path_1"
        d="M 96 33.14 C 130.758 33.14 158.86 61.242 158.86 96 C 158.86 130.758 130.758 158.86 96 158.86 C 61.242 158.86 33.14 130.758 33.14 96 C 33.14 61.242 61.242 33.14 96 33.14 Z"
        fill="none"
        stroke="#000000"
        stroke-width="12"
        stroke-linecap="round"
        stroke-linejoin="round"
        stroke-miterlimit="90"/>
    <path
        id="path_2"
        d="M 128.17 100.807 C 130.758 100.067 132.607 97.479 131.867 94.891 C 131.498 93.042 130.019 91.563 128.17 91.193 L 77.881 62.351 C 75.293 61.612 72.705 63.091 71.965 65.679 C 71.965 66.049 71.595 66.788 71.595 67.528 L 71.595 125.212 C 71.595 127.8 73.444 130.019 76.033 130.388 C 76.772 130.388 77.142 130.388 77.881 130.019 Z"
        fill="none"
        stroke="#000000"
        stroke-width="12"
        stroke-linecap="round"
        stroke-linejoin="round"
        stroke-miterlimit="90"/>
</svg>
